X: 060858
T: Flynn's 
S: "First Collection of Traditional Irish Music" (M.Mulvihill)
Z: B.Black
L: 1/8
M: 4/4
R: reel
K: G
dc|BG (3GFG BdcA|BGBd cAFA|BG (3GFG Bcde|1 fgaf ge :|2\
fgaf g2||
ga|bgaf dg (3gfg|fdcA BG G2|bgaf dg (3gfg|fgaf g2 ga|
bgaf dg (3gfg|fdcA BG G2|BG (3GFG Bcde|fgaf g2 :|
